X:1
T:Title
%%score { ( 1 3 ) | ( 2 4 ) }
L:1/8
Q:1/4=104
M:4/4
K:Bb
V:1 treble nm="Grand Piano"
V:3 treble 
V:2 bass 
V:4 bass 
V:1
 [DF]>[DF] [B,D]>[CE] [DF]2 [DB]2 | [EG]>[GB] [GB]>[EG] [DF]4 | F>G F>E D>[DF] [DB]>[DB] | %3
w: Powell~G.~Fithian * * * * *|||
 z2 [=Ec]2 z4 | [Dd]>[Dd] [Ec]>[Ed] [FB]2 [DF]2 | d>d d>e [Ec]4 | %6
w: |||
 [=Ec]>[Ec] [Ed]>[Ec] [Fc]>[CFA] [A,F]>[DGB] | [CFA]2 [B,=EG]2 [A,F]4 | [DB]2 [EA]2 [FB]2 [DF]2 | %9
w: |||
 [EG]>[GB] [FA]>[EG] [DF]4 | F>G F>E D>[DF] [FB]>[FB] | [FA]2 [=Ec]2 c2 _d2 | %12
w: |||
 [Dd]2 [EA]2 [FB]2 [DF]2 | [EG]>[GB] [FA]>[EG] [DF]4 | [DF]>[Fd] [Fc]>[FA] [FB]>[DF] G>c | %15
w: |||
 B2 A-[EA] [DB]4 |] %16
w: |
V:2
 [B,,B,]>[B,,B,] [B,,F,]>[B,,F,] [B,,B,]2 [B,,B,]2 | [E,B,]>[E,B,] [E,B,]>[E,B,] [B,,B,]4 | %2
 [F,A,C]>[F,A,E] [F,A,D]>[F,C] [B,,F,B,]>[B,,F,] [G,,G,]>[B,,G,] | [C,F,]2 .[C,G,]2 [F,A,E]4 | %4
 [B,,B,]>[B,,F,] [C,F,]>[C,F,] [D,B,]2 [B,,B,]2 | [G,=B,F]>[G,B,F] [G,B,F]>[G,B,F][K:bass] [C,C]4 | %6
 [C,B,]>[C,B,] [C,G,]>[C,B,] [F,A,]>F, F,>B,, | C,2 C,2 z2 E2 | [B,,F,]2 [C,F,]2 [D,B,]2 [B,,B,]2 | %9
 [E,B,]>[E,B,] [E,B,]>[E,B,] [B,,B,]4 | [F,A,C]>[F,E] [F,D]>[F,C] [B,,F,B,]>[B,,B,] [D,B,]>[D,B,] | %11
 [C,C]2 [C,B,]2 [F,A,E]4 | [B,,F,]2 [C,F,]2 [D,B,]2 [B,,B,]2 | %13
 [E,B,]>[E,B,] [E,B,]>[E,B,] [B,,B,]4 | z4 z2 B,2 | [F,D]2 [F,,F,]2 [B,,F,]4 |] %16
V:3
 x8 | x8 | x8 | [CA]2 z B, c2 _d2 | x8 | x8 | x8 | z4 C2 z2 | x8 | x8 | x8 | x8 | x8 | x8 | x8 | %15
 z2 .C2 z4 |] %16
V:4
 x8 | x8 | x8 | x8 | x8 | x4[K:bass] x4 | x8 | z4 F,4 | x8 | x8 | x8 | x8 | x8 | x8 | %14
 [B,,B,]>[B,,B,] [C,A,]>[E,C] [D,B,]>[B,,B,] [E,E]->[E,G,E] | x8 |] %16

